X:1127
M:6/8
L:1/8
Q:3/8=80 "Slow"
K:G
   Bcd  E2E| ABc D2D| E>FG A<FD| G3- G3::
   ded  e2f|!g3- g3 | BcB  c2d | e3- e3 |
   dcB  cde| dcd D2D|!EFG  AFD | G3  G3::
   BAB  DGB| AGA DFA| GFG  EAG |!F3  D3 |
   dBd  dBd| ece efg| dcB  cAF | G3- G3:|

